img/adv-3.svg

<svg width="120" height="120" viewBox="0 0 120 120" fill="none" xmlns="http://www.w3.org/2000/svg">
<path d="M63.871 81.2905H56.129C53.9942 81.2905 52.2581 79.5544 52.2581 77.4195C52.2581 75.2847 53.9942 73.5486 56.129 73.5486H63.871C66.0058 73.5486 67.7419 75.2847 67.7419 77.4195H71.6129C71.6129 73.1499 68.1406 69.6776 63.871 69.6776H61.9355V65.8066H58.0645V69.6776H56.129C51.8593 69.6776 48.3871 73.1499 48.3871 77.4195C48.3871 81.6892 51.8593 85.1615 56.129 85.1615H63.871C66.0058 85.1615 67.7419 86.8976 67.7419 89.0324C67.7419 91.1673 66.0058 92.9034 63.871 92.9034H56.129C53.9942 92.9034 52.2581 91.1673 52.2581 89.0324H48.3871C48.3871 93.3021 51.8593 96.7744 56.129 96.7744H58.0645V100.645H61.9355V96.7744H63.871C68.1406 96.7744 71.6129 93.3021 71.6129 89.0324C71.6129 84.7628 68.1406 81.2905 63.871 81.2905Z" fill="#323232" fill-opacity="0.7"/>
<path d="M87.0968 3.87109C76.2542 3.87109 66.0968 9.28271 59.9903 18.1375C54.0503 9.53045 44.129 3.87109 32.9032 3.87109C14.76 3.87109 0 18.6311 0 36.7743C0 53.9769 13.2755 68.1156 30.1181 69.5362C28.1981 73.7111 27.0968 78.3369 27.0968 83.2259C27.0968 101.369 41.8568 116.129 60 116.129C66.8729 116.129 73.4768 114.006 79.0974 109.988L76.8464 106.839C71.8877 110.385 66.0619 112.258 60 112.258C43.9916 112.258 30.9677 99.2343 30.9677 83.2259C30.9677 67.2175 43.9916 54.1937 60 54.1937C76.0084 54.1937 89.0323 67.2175 89.0323 83.2259C89.0323 90.1143 86.5606 96.8014 82.0703 102.056L85.0142 104.57C90.1006 98.615 92.9032 91.0337 92.9032 83.2259C92.9032 78.3427 91.8058 73.7227 89.8897 69.5517C95.7503 69.0563 101.34 67.0066 106.194 63.5362L103.943 60.3872C99.1897 63.7859 93.6368 65.6285 87.8458 65.7775C82.4903 57.2614 73.3645 51.364 62.8103 50.4659C64.7671 46.1885 65.8064 41.5163 65.8064 36.7743C65.8064 31.4033 64.4865 26.3459 62.1948 21.8633C67.4303 13.144 76.92 7.74206 87.0968 7.74206C103.105 7.74206 116.129 20.7659 116.129 36.7743C116.129 43.6627 113.657 50.3498 109.167 55.6046L112.111 58.1188C117.197 52.1633 120 44.5821 120 36.7743C120 18.6311 105.24 3.87109 87.0968 3.87109ZM58.529 50.3982C47.4194 50.8917 37.7419 56.8995 32.16 65.7698C16.4961 65.3692 3.87097 52.5311 3.87097 36.7743C3.87097 20.7659 16.8948 7.74206 32.9032 7.74206C48.9116 7.74206 61.9355 20.7659 61.9355 36.7743C61.9355 41.5395 60.751 46.2214 58.529 50.3982Z" fill="#323232" fill-opacity="0.7"/>
<path d="M87.0967 50.3222C83.8954 50.3222 81.2903 47.7171 81.2903 44.5158V42.5803H85.1612V38.7093H81.2903V34.8384H85.1612V30.9674H81.2903V29.0319C81.2903 25.8306 83.8954 23.2255 87.0967 23.2255C90.298 23.2255 92.9032 25.8306 92.9032 29.0319H96.7742C96.7742 23.6958 92.4329 19.3545 87.0967 19.3545C81.7606 19.3545 77.4193 23.6958 77.4193 29.0319V30.9674H73.5483V34.8384H77.4193V38.7093H73.5483V42.5803H77.4193V44.5158C77.4193 49.8519 81.7606 54.1932 87.0967 54.1932C92.4329 54.1932 96.7742 49.8519 96.7742 44.5158H92.9032C92.9032 47.7171 90.298 50.3222 87.0967 50.3222Z" fill="#323232" fill-opacity="0.7"/>
<path d="M34.8386 33.6192L45.985 20.6147L43.047 18.0947L32.9031 29.9283L22.7592 18.0947L19.8212 20.6147L30.9676 33.6192V38.7096H27.0966V42.5805H30.9676V46.4515H27.0966V50.3225H30.9676V52.258H34.8386V50.3225H38.7095V46.4515H34.8386V42.5805H38.7095V38.7096H34.8386V33.6192Z" fill="#323232" fill-opacity="0.7"/>
</svg>

<svg width="120" height="120" fill="none" xmlns="http://www.w3.org/2000/svg"><path d="M63.871 81.29h-7.742a3.875 3.875 0 01-3.87-3.87 3.875 3.875 0 013.87-3.871h7.742a3.875 3.875 0 013.87 3.87h3.872c0-4.27-3.472-7.741-7.742-7.741h-1.936v-3.871h-3.87v3.87h-1.936c-4.27 0-7.742 3.473-7.742 7.742 0 4.27 3.472 7.743 7.742 7.743h7.742a3.875 3.875 0 013.87 3.87 3.875 3.875 0 01-3.87 3.871h-7.742a3.875 3.875 0 01-3.87-3.87h-3.872c0 4.27 3.472 7.741 7.742 7.741h1.936v3.871h3.87v-3.87h1.936c4.27 0 7.742-3.473 7.742-7.743 0-4.27-3.472-7.742-7.742-7.742z" fill="#323232" fill-opacity=".7"/><path d="M87.097 3.871c-10.843 0-21 5.412-27.107 14.266C54.05 9.53 44.13 3.871 32.903 3.871 14.76 3.871 0 18.631 0 36.774c0 17.203 13.275 31.342 30.118 32.762-1.92 4.175-3.021 8.8-3.021 13.69 0 18.143 14.76 32.903 32.903 32.903 6.873 0 13.477-2.123 19.097-6.141l-2.25-3.149c-4.96 3.546-10.785 5.419-16.847 5.419-16.008 0-29.032-13.024-29.032-29.032 0-16.008 13.024-29.032 29.032-29.032 16.008 0 29.032 13.023 29.032 29.032a29.012 29.012 0 01-6.962 18.83l2.944 2.514a32.9 32.9 0 007.89-21.344c0-4.883-1.098-9.503-3.014-13.674a32.656 32.656 0 0016.304-6.016l-2.251-3.149a28.8 28.8 0 01-16.097 5.39c-5.356-8.515-14.481-14.412-25.036-15.31a32.94 32.94 0 002.996-13.692c0-5.37-1.32-10.428-3.611-14.91C67.43 13.143 76.92 7.741 87.097 7.741c16.008 0 29.032 13.024 29.032 29.032a29.015 29.015 0 01-6.962 18.83l2.944 2.515A32.904 32.904 0 00120 36.774c0-18.143-14.76-32.903-32.903-32.903zM58.529 50.398c-11.11.494-20.787 6.502-26.369 15.372-15.664-.4-28.289-13.239-28.289-28.996 0-16.008 13.024-29.032 29.032-29.032 16.009 0 29.032 13.024 29.032 29.032 0 4.765-1.184 9.447-3.406 13.624z" fill="#323232" fill-opacity=".7"/><path d="M87.097 50.322a5.813 5.813 0 01-5.807-5.806V42.58h3.871v-3.87h-3.87v-3.872h3.87v-3.87h-3.87v-1.936a5.813 5.813 0 015.806-5.806 5.814 5.814 0 015.806 5.806h3.871c0-5.336-4.341-9.677-9.677-9.677-5.336 0-9.678 4.34-9.678 9.677v1.935h-3.87v3.871h3.87v3.871h-3.87v3.871h3.87v1.936c0 5.336 4.342 9.677 9.678 9.677 5.336 0 9.677-4.341 9.677-9.677h-3.87a5.814 5.814 0 01-5.807 5.806zM34.839 33.62l11.146-13.005-2.938-2.52-10.144 11.833L22.76 18.095l-2.938 2.52 11.147 13.004v5.09h-3.871v3.871h3.87v3.872h-3.87v3.87h3.87v1.936h3.872v-1.936h3.87v-3.87h-3.87V42.58h3.87v-3.87h-3.87v-5.09z" fill="#323232" fill-opacity=".7"/></svg>
